X:1
T:Lads of Alnwick, The
L:1/8
M:3/4
K:G
g2 de/f/ g/f/e/d/|BGgG B/c/d/B/|g2 de/f/ g/f/e/d/|cAeAce:|
|:G/A/B/c/ dBdB|G/A/B/c/ dBdg|G/A/B/c/ dBdB|A/B/c/d/ eAce:|
|:dg B/c/d/B/ gB|dg B/c/d/B/ ce|dg B/c/d/B/ gB|A/B/c/d/ eAce:|
|:G/A/B/c/ d/e/d/c/ B/c/d/B/|d/e/d/B/ B/c/d/B/ dg|G/A/B/c/ d/e/d/c/ B/c/d/B/|A/B/c/d/ eAce:|
|:B/d/g/d/ B/d/g/d/ B/d/g/d/|B/d/g/d/ gB dg| B/d/g/d/ B/d/g/d/ B/d/g/d/| A/B/c/d/ eAce:|

